retroactive/svg_marked/Sega - SG-1000.svg

<?xml version="1.0" encoding="UTF-8" standalone="no"?>
<svg
   xmlns:dc="http://purl.org/dc/elements/1.1/"
   xmlns:cc="http://creativecommons.org/ns#"
   xmlns:rdf="http://www.w3.org/1999/02/22-rdf-syntax-ns#"
   xmlns:svg="http://www.w3.org/2000/svg"
   xmlns="http://www.w3.org/2000/svg"
   viewBox="0 0 320 320"
   height="320"
   width="320"
   xml:space="preserve"
   version="1.1"
   id="svg2"><metadata
     id="metadata8"><rdf:RDF><cc:Work
         rdf:about=""><dc:format>image/svg+xml</dc:format><dc:type
           rdf:resource="http://purl.org/dc/dcmitype/StillImage" /></cc:Work></rdf:RDF></metadata><defs
     id="defs6"><clipPath
       id="clipPath16"
       clipPathUnits="userSpaceOnUse"><path
         id="path18"
         d="M 0,256 256,256 256,0 0,0 0,256 Z" /></clipPath><clipPath
       id="clipPath24"
       clipPathUnits="userSpaceOnUse"><path
         id="path26"
         d="M 4,184 252,184 252,72 4,72 4,184 Z" /></clipPath></defs><g
     transform="matrix(1.25,0,0,-1.25,0,320)"
     id="g10"><g
       id="g12"><g
         clip-path="url(#clipPath16)"
         id="g14"><g
           id="g20"><g
             id="g22" /><g
             id="g28"><g
               style="opacity:0.5"
               id="g30"
               clip-path="url(#clipPath24)"><g
                 id="g32"
                 transform="translate(228,184)"><path
                   id="path34"
                   style="fill:#ffffff;fill-opacity:1;fill-rule:nonzero;stroke:none"
                   d="m 0,0 -200,0 c -13.234,0 -24,-10.766 -24,-24 l 0,-64 c 0,-13.234 10.766,-24 24,-24 l 200,0 c 13.234,0 24,10.766 24,24 l 0,64 C 24,-10.766 13.234,0 0,0" /></g></g></g></g><g
           transform="translate(228,176)"
           id="g36"><path
             id="path38"
             style="fill:#999999;fill-opacity:1;fill-rule:nonzero;stroke:none"
             d="m 0,0 -200,0 c -8.836,0 -16,-7.164 -16,-16 l 0,-64 c 0,-8.836 7.164,-16 16,-16 l 200,0 c 8.836,0 16,7.164 16,16 l 0,64 C 16,-7.164 8.836,0 0,0" /></g><g
           transform="translate(68,96)"
           id="g40"><path
             id="path42"
             style="fill:#262626;fill-opacity:1;fill-rule:nonzero;stroke:none"
             d="M 0,0 C -17.672,0 -32,14.328 -32,32 -32,49.672 -17.672,64 0,64 17.672,64 32,49.672 32,32 32,14.328 17.672,0 0,0" /></g><g
           transform="translate(180,112)"
           id="g44"><path
             id="path46"
             style="fill:#262626;fill-opacity:1;fill-rule:nonzero;stroke:none"
             d="m 0,0 c 0,-6.628 -5.372,-12 -12,-12 -6.628,0 -12,5.372 -12,12 l 0,12 c 0,6.628 5.372,12 12,12 6.628,0 12,-5.372 12,-12 L 0,0 Z" /></g><g
           transform="translate(168,136)"
           id="g48"><path
             id="path50"
             style="fill:#000000;fill-opacity:1;fill-rule:nonzero;stroke:none"
             d="m 0,0 c -6.628,0 -12,-5.372 -12,-12 l 0,-12 c 0,-6.628 5.372,-12 12,-12 6.628,0 12,5.372 12,12 l 0,12 C 12,-5.372 6.628,0 0,0 m 0,-2 c 5.514,0 10,-4.613 10,-10.283 l 0,-11.434 C 10,-29.387 5.514,-34 0,-34 c -5.514,0 -10,4.613 -10,10.283 l 0,11.434 C -10,-6.613 -5.514,-2 0,-2" /></g><g
           transform="translate(220,112)"
           id="g52"><path
             id="path54"
             style="fill:#262626;fill-opacity:1;fill-rule:nonzero;stroke:none"
             d="m 0,0 c 0,-6.628 -5.372,-12 -12,-12 -6.628,0 -12,5.372 -12,12 l 0,12 c 0,6.628 5.372,12 12,12 6.628,0 12,-5.372 12,-12 L 0,0 Z" /></g><g
           transform="translate(208,136)"
           id="g56"><path
             id="path58"
             style="fill:#000000;fill-opacity:1;fill-rule:nonzero;stroke:none"
             d="m 0,0 c -6.628,0 -12,-5.372 -12,-12 l 0,-12 c 0,-6.628 5.372,-12 12,-12 6.628,0 12,5.372 12,12 l 0,12 C 12,-5.372 6.628,0 0,0 m 0,-2 c 5.514,0 10,-4.613 10,-10.283 l 0,-11.434 C 10,-29.387 5.514,-34 0,-34 c -5.514,0 -10,4.613 -10,10.283 l 0,11.434 C -10,-6.613 -5.514,-2 0,-2" /></g><g
           transform="translate(76,128)"
           id="g60"><path
             id="path62"
             style="fill:#0d0d0d;fill-opacity:1;fill-rule:nonzero;stroke:none"
             d="m 0,0 c 0,-4.416 -3.584,-8 -8,-8 -4.416,0 -8,3.584 -8,8 0,4.416 3.584,8 8,8 4.416,0 8,-3.584 8,-8" /></g><g
           transform="translate(72,144)"
           id="g64"><path
             id="path66"
             style="fill:#191919;fill-opacity:1;fill-rule:nonzero;stroke:none"
             d="m 0,0 c 0,-2.212 -1.788,-4 -4,-4 -2.212,0 -4,1.788 -4,4 l 0,8 c 0,2.212 1.788,4 4,4 2.212,0 4,-1.788 4,-4 L 0,0 Z" /></g><g
           transform="translate(72,104)"
           id="g68"><path
             id="path70"
             style="fill:#191919;fill-opacity:1;fill-rule:nonzero;stroke:none"
             d="m 0,0 c 0,-2.212 -1.788,-4 -4,-4 -2.212,0 -4,1.788 -4,4 l 0,8 c 0,2.212 1.788,4 4,4 2.212,0 4,-1.788 4,-4 L 0,0 Z" /></g><g
           transform="translate(52,132)"
           id="g72"><path
             id="path74"
             style="fill:#191919;fill-opacity:1;fill-rule:nonzero;stroke:none"
             d="M 0,0 C 2.212,0 4,-1.788 4,-4 4,-6.212 2.212,-8 0,-8 l -8,0 c -2.212,0 -4,1.788 -4,4 0,2.212 1.788,4 4,4 l 8,0 z" /></g><g
           transform="translate(92,132)"
           id="g76"><path
             id="path78"
             style="fill:#191919;fill-opacity:1;fill-rule:nonzero;stroke:none"
             d="M 0,0 C 2.212,0 4,-1.788 4,-4 4,-6.212 2.212,-8 0,-8 l -8,0 c -2.212,0 -4,1.788 -4,4 0,2.212 1.788,4 4,4 l 8,0 z" /></g><path
           id="path80"
           style="fill:#b3b3b3;fill-opacity:1;fill-rule:nonzero;stroke:none"
           d="m 219.999,148 -64,0 0,4.127 64,0 0,-4.127 z" /><path
           id="path82"
           style="fill:#191919;fill-opacity:1;fill-rule:nonzero;stroke:none"
           d="m 219.999,152 -64,0 0,16 64,0 0,-16 z" /><g
           transform="translate(184.6478,156)"
           id="g84"><path
             id="path86"
             style="fill:#354f9f;fill-opacity:1;fill-rule:nonzero;stroke:none"
             d="m 0,0 -1.073,0 -1.34,2.759 0,-2.759 -1.073,0 0,3.862 1.609,0 L 0,0 Z M 0,5.379 C 0,5.036 -0.118,4.743 -0.353,4.501 -0.588,4.259 -0.828,4.138 -1.073,4.138 l -2.681,0 0,-4.138 -1.073,0 0,5.241 3.486,0 c 0.179,0 0.268,0.046 0.268,0.138 0,0.092 -0.089,0.138 -0.268,0.138 l -3.486,0 0,1.104 3.754,0 c 0.245,0 0.485,-0.123 0.72,-0.368 C -0.118,6.008 0,5.716 0,5.379 m 1.341,0 C 1.341,4.656 1.161,4.109 0.8,3.738 0.439,3.367 0.134,3.117 -0.116,2.989 L 1.341,0 0.268,0 l -1.877,3.862 0.536,0 c 0.316,0 0.619,0.149 0.908,0.446 0.289,0.297 0.433,0.654 0.433,1.071 0,0.411 -0.144,0.767 -0.433,1.067 -0.289,0.3 -0.592,0.451 -0.908,0.451 l -3.754,0 0,1.103 3.754,0 C -0.459,8 0.097,7.743 0.594,7.228 1.092,6.713 1.341,6.097 1.341,5.379" /></g><g
           transform="translate(186.5249,161.5172)"
           id="g88"><path
             id="path90"
             style="fill:#354f9f;fill-opacity:1;fill-rule:nonzero;stroke:none"
             d="m 0,0 c 0,1.655 0.804,2.483 2.413,2.483 l 3.218,0 0,-1.104 -3.218,0 C 1.52,1.379 1.073,0.92 1.073,0 l 0,-3.034 c 0,-0.92 0.447,-1.38 1.34,-1.38 l 3.218,0 0,-1.103 -3.218,0 C 0.804,-5.517 0,-4.69 0,-3.034 L 0,0 Z" /></g><g
           transform="translate(187.8657,160.1379)"
           id="g92"><path
             id="path94"
             style="fill:#354f9f;fill-opacity:1;fill-rule:nonzero;stroke:none"
             d="m 0,0 0,1.379 c 0,0.736 0.358,1.104 1.073,1.104 l 3.218,0 0,-1.104 -2.95,0 C 1.162,1.379 1.073,1.287 1.073,1.103 l 2.413,0 L 3.486,0 0,0 Z" /></g><g
           transform="translate(187.8657,159.8621)"
           id="g96"><path
             id="path98"
             style="fill:#354f9f;fill-opacity:1;fill-rule:nonzero;stroke:none"
             d="m 0,0 3.486,0 0,-1.103 -2.413,0 c 0,-0.184 0.089,-0.276 0.268,-0.276 l 2.95,0 0,-1.104 -3.218,0 C 0.358,-2.483 0,-2.115 0,-1.379 L 0,0 Z" /></g><g
           transform="translate(195.9105,162.6207)"
           id="g100"><path
             id="path102"
             style="fill:#354f9f;fill-opacity:1;fill-rule:nonzero;stroke:none"
             d="m 0,0 2.95,0 0,-1.103 -1.877,0 0,-5.518 L 0,-6.621 0,0 Z m -0.268,0 0,-6.621 -1.073,0 0,5.518 -1.877,0 0,1.103 2.95,0 z m 3.218,0.276 -6.168,0 0,1.103 6.168,0 0,-1.103 z" /></g><g
           transform="translate(204.2234,156)"
           id="g104"><path
             id="path106"
             style="fill:#354f9f;fill-opacity:1;fill-rule:nonzero;stroke:none"
             d="m 0,0 -1.073,0 -1.34,2.759 0,-2.759 -1.073,0 0,3.862 1.609,0 L 0,0 Z M 0,5.379 C 0,5.036 -0.118,4.743 -0.353,4.501 -0.588,4.259 -0.828,4.138 -1.073,4.138 l -2.681,0 0,-4.138 -1.073,0 0,5.241 3.486,0 c 0.179,0 0.268,0.046 0.268,0.138 0,0.092 -0.089,0.138 -0.268,0.138 l -3.486,0 0,1.104 3.754,0 c 0.245,0 0.485,-0.123 0.72,-0.368 C -0.118,6.008 0,5.716 0,5.379 m 1.341,0 C 1.341,4.656 1.161,4.109 0.8,3.738 0.439,3.367 0.134,3.117 -0.116,2.989 L 1.341,0 0.268,0 l -1.877,3.862 0.536,0 c 0.316,0 0.619,0.149 0.908,0.446 0.289,0.297 0.433,0.654 0.433,1.071 0,0.411 -0.144,0.767 -0.433,1.067 -0.289,0.3 -0.592,0.451 -0.908,0.451 l -3.754,0 0,1.103 3.754,0 C -0.459,8 0.097,7.743 0.594,7.228 1.092,6.713 1.341,6.097 1.341,5.379" /></g><g
           transform="translate(209.5866,161.2414)"
           id="g108"><path
             id="path110"
             style="fill:#354f9f;fill-opacity:1;fill-rule:nonzero;stroke:none"
             d="m 0,0 c 0,0.184 -0.089,0.276 -0.268,0.276 l -0.536,0 C -0.983,0.276 -1.073,0.184 -1.073,0 l 0,-2.483 c 0,-0.184 0.09,-0.276 0.269,-0.276 l 0.536,0 C -0.089,-2.759 0,-2.667 0,-2.483 L 0,0 Z m 1.073,0.276 0,-3.035 C 1.073,-3.494 0.715,-3.862 0,-3.862 l -1.073,0 c -0.715,0 -1.072,0.368 -1.072,1.103 l 0,3.035 c 0,0.735 0.357,1.103 1.072,1.103 l 1.073,0 c 0.715,0 1.073,-0.368 1.073,-1.103 m 0.268,0 C 1.341,1.195 0.894,1.655 0,1.655 l -1.073,0 c -0.894,0 -1.34,-0.46 -1.34,-1.379 l 0,-3.035 c 0,-0.919 0.446,-1.379 1.34,-1.379 l 1.073,0 c 0.894,0 1.341,0.46 1.341,1.379 l 0,3.035 z m 1.072,0 0,-3.035 C 2.413,-4.414 1.609,-5.241 0,-5.241 l -1.073,0 c -1.609,0 -2.413,0.827 -2.413,2.482 l 0,3.035 c 0,1.655 0.804,2.483 2.413,2.483 l 1.073,0 c 1.609,0 2.413,-0.828 2.413,-2.483" /></g><g
           transform="translate(165.1706,157.855)"
           id="g112"><path
             id="path114"
             style="fill:#354f9f;fill-opacity:1;fill-rule:nonzero;stroke:none"
             d="M 0,0 C -0.008,0.024 -0.014,0.051 -0.021,0.076 L 0,0.076 0,0 Z m 1.511,0.628 c -0.179,0 -0.268,0.092 -0.268,0.276 l 0,5.241 -2.414,0 0,-5.517 c 0,-1.655 0.805,-2.483 2.414,-2.483 l 3.218,0 0,2.483 -2.95,0 z" /></g><path
           id="path116"
           style="fill:#354f9f;fill-opacity:1;fill-rule:nonzero;stroke:none"
           d="m 170.167,156 2.413,0 0,8 -2.413,0 0,-8 z" /><g
           transform="translate(176.6031,161.2414)"
           id="g118"><path
             id="path120"
             style="fill:#354f9f;fill-opacity:1;fill-rule:nonzero;stroke:none"
             d="m 0,0 -1.073,0 0,0.276 1.073,0 C 0.179,0.276 0.268,0.23 0.268,0.138 0.268,0.046 0.179,0 0,0 m 0,-2.759 -1.073,0 0,0.276 1.073,0 c 0.179,0 0.268,-0.046 0.268,-0.138 C 0.268,-2.713 0.179,-2.759 0,-2.759 M 2.682,0.138 C 2.682,0.855 2.433,1.471 1.935,1.986 1.438,2.501 0.882,2.759 0.268,2.759 l -3.754,0 0,-8 3.754,0 c 0.614,0 1.17,0.257 1.667,0.772 0.498,0.515 0.747,1.131 0.747,1.848 0,0.521 -0.123,0.978 -0.367,1.37 0.244,0.393 0.367,0.856 0.367,1.389" /></g></g></g></g></svg>

<?xml version="1.0" encoding="UTF-8" standalone="no"?>
<svg
   xmlns:dc="http://purl.org/dc/elements/1.1/"
   xmlns:cc="http://creativecommons.org/ns#"
   xmlns:rdf="http://www.w3.org/1999/02/22-rdf-syntax-ns#"
   xmlns:svg="http://www.w3.org/2000/svg"
   xmlns="http://www.w3.org/2000/svg"
   viewBox="0 0 330.66665 149.33333"
   height="149.33333"
   width="330.66666"
   xml:space="preserve"
   id="svg2"
   version="1.1"><metadata
     id="metadata8"><rdf:RDF><cc:Work
         rdf:about=""><dc:format>image/svg+xml</dc:format><dc:type
           rdf:resource="http://purl.org/dc/dcmitype/StillImage" /></cc:Work></rdf:RDF></metadata><defs
     id="defs6"><clipPath
       id="clipPath18"
       clipPathUnits="userSpaceOnUse"><path
         id="path16"
         d="M 0,256 H 256 V 0 H 0 Z" /></clipPath><clipPath
       id="clipPath26"
       clipPathUnits="userSpaceOnUse"><path
         id="path24"
         d="M 4,184 H 252 V 72 H 4 Z" /></clipPath></defs><g
     transform="matrix(1.3333333,0,0,-1.3333333,-5.3333332,245.33333)"
     id="g10"><g
       id="g12"><g
         clip-path="url(#clipPath18)"
         id="g14"><g
           id="g20"><g
             id="g22" /><g
             id="g34"><g
               style="opacity:0.5"
               id="g32"
               clip-path="url(#clipPath26)"><g
                 id="g30"
                 transform="translate(228,184)"><path
                   id="path28"
                   style="fill:#ffffff;fill-opacity:1;fill-rule:nonzero;stroke:none"
                   d="m 0,0 h -200 c -13.234,0 -24,-10.766 -24,-24 v -64 c 0,-13.234 10.766,-24 24,-24 H 0 c 13.234,0 24,10.766 24,24 v 64 C 24,-10.766 13.234,0 0,0" /></g></g></g></g><g
           transform="translate(228,176)"
           id="g36"><path
             id="path38"
             style="fill:#999999;fill-opacity:1;fill-rule:nonzero;stroke:none"
             d="m 0,0 h -200 c -8.836,0 -16,-7.164 -16,-16 v -64 c 0,-8.836 7.164,-16 16,-16 H 0 c 8.836,0 16,7.164 16,16 v 64 C 16,-7.164 8.836,0 0,0" /></g><g
           transform="translate(68,96)"
           id="g40"><path
             id="path42"
             style="fill:#262626;fill-opacity:1;fill-rule:nonzero;stroke:none"
             d="M 0,0 C -17.672,0 -32,14.328 -32,32 -32,49.672 -17.672,64 0,64 17.672,64 32,49.672 32,32 32,14.328 17.672,0 0,0" /></g><g
           transform="translate(180,112)"
           id="g44"><path
             id="path46"
             style="fill:#262626;fill-opacity:1;fill-rule:nonzero;stroke:none"
             d="m 0,0 c 0,-6.628 -5.372,-12 -12,-12 -6.628,0 -12,5.372 -12,12 v 12 c 0,6.628 5.372,12 12,12 6.628,0 12,-5.372 12,-12 z" /></g><g
           transform="translate(168,136)"
           id="g48"><path
             id="path50"
             style="fill:#000000;fill-opacity:1;fill-rule:nonzero;stroke:none"
             d="m 0,0 c -6.628,0 -12,-5.372 -12,-12 v -12 c 0,-6.628 5.372,-12 12,-12 6.628,0 12,5.372 12,12 v 12 C 12,-5.372 6.628,0 0,0 m 0,-2 c 5.514,0 10,-4.613 10,-10.283 V -23.717 C 10,-29.387 5.514,-34 0,-34 c -5.514,0 -10,4.613 -10,10.283 v 11.434 C -10,-6.613 -5.514,-2 0,-2" /></g><g
           transform="translate(220,112)"
           id="g52"><path
             id="path54"
             style="fill:#262626;fill-opacity:1;fill-rule:nonzero;stroke:none"
             d="m 0,0 c 0,-6.628 -5.372,-12 -12,-12 -6.628,0 -12,5.372 -12,12 v 12 c 0,6.628 5.372,12 12,12 6.628,0 12,-5.372 12,-12 z" /></g><g
           transform="translate(208,136)"
           id="g56"><path
             id="path58"
             style="fill:#000000;fill-opacity:1;fill-rule:nonzero;stroke:none"
             d="m 0,0 c -6.628,0 -12,-5.372 -12,-12 v -12 c 0,-6.628 5.372,-12 12,-12 6.628,0 12,5.372 12,12 v 12 C 12,-5.372 6.628,0 0,0 m 0,-2 c 5.514,0 10,-4.613 10,-10.283 V -23.717 C 10,-29.387 5.514,-34 0,-34 c -5.514,0 -10,4.613 -10,10.283 v 11.434 C -10,-6.613 -5.514,-2 0,-2" /></g><g
           transform="translate(76,128)"
           id="g60"><path
             id="path62"
             style="fill:#0d0d0d;fill-opacity:1;fill-rule:nonzero;stroke:none"
             d="m 0,0 c 0,-4.416 -3.584,-8 -8,-8 -4.416,0 -8,3.584 -8,8 0,4.416 3.584,8 8,8 4.416,0 8,-3.584 8,-8" /></g><g
           transform="translate(72,144)"
           id="g64"><path
             id="path66"
             style="fill:#191919;fill-opacity:1;fill-rule:nonzero;stroke:none"
             d="m 0,0 c 0,-2.212 -1.788,-4 -4,-4 -2.212,0 -4,1.788 -4,4 v 8 c 0,2.212 1.788,4 4,4 2.212,0 4,-1.788 4,-4 z" /></g><g
           transform="translate(72,104)"
           id="g68"><path
             id="path70"
             style="fill:#191919;fill-opacity:1;fill-rule:nonzero;stroke:none"
             d="m 0,0 c 0,-2.212 -1.788,-4 -4,-4 -2.212,0 -4,1.788 -4,4 v 8 c 0,2.212 1.788,4 4,4 2.212,0 4,-1.788 4,-4 z" /></g><g
           transform="translate(52,132)"
           id="g72"><path
             id="path74"
             style="fill:#191919;fill-opacity:1;fill-rule:nonzero;stroke:none"
             d="M 0,0 C 2.212,0 4,-1.788 4,-4 4,-6.212 2.212,-8 0,-8 h -8 c -2.212,0 -4,1.788 -4,4 0,2.212 1.788,4 4,4 z" /></g><g
           transform="translate(92,132)"
           id="g76"><path
             id="path78"
             style="fill:#191919;fill-opacity:1;fill-rule:nonzero;stroke:none"
             d="M 0,0 C 2.212,0 4,-1.788 4,-4 4,-6.212 2.212,-8 0,-8 h -8 c -2.212,0 -4,1.788 -4,4 0,2.212 1.788,4 4,4 z" /></g><path
           id="path80"
           style="fill:#b3b3b3;fill-opacity:1;fill-rule:nonzero;stroke:none"
           d="m 219.999,148 h -64 v 4.127 h 64 z" /><path
           id="path82"
           style="fill:#191919;fill-opacity:1;fill-rule:nonzero;stroke:none"
           d="m 219.999,152 h -64 v 16 h 64 z" /><g
           transform="translate(184.6478,156)"
           id="g84"><path
             id="path86"
             style="fill:#354f9f;fill-opacity:1;fill-rule:nonzero;stroke:none"
             d="m 0,0 h -1.073 l -1.34,2.759 V 0 h -1.073 v 3.862 h 1.609 z M 0,5.379 C 0,5.036 -0.118,4.743 -0.353,4.501 -0.588,4.259 -0.828,4.138 -1.073,4.138 H -3.754 V 0 h -1.073 v 5.241 h 3.486 c 0.179,0 0.268,0.046 0.268,0.138 0,0.092 -0.089,0.138 -0.268,0.138 h -3.486 v 1.104 h 3.754 c 0.245,0 0.485,-0.123 0.72,-0.368 C -0.118,6.008 0,5.716 0,5.379 m 1.341,0 C 1.341,4.656 1.161,4.109 0.8,3.738 0.439,3.367 0.134,3.117 -0.116,2.989 L 1.341,0 H 0.268 l -1.877,3.862 h 0.536 c 0.316,0 0.619,0.149 0.908,0.446 0.289,0.297 0.433,0.654 0.433,1.071 0,0.411 -0.144,0.767 -0.433,1.067 -0.289,0.3 -0.592,0.451 -0.908,0.451 H -4.827 V 8 h 3.754 C -0.459,8 0.097,7.743 0.594,7.228 1.092,6.713 1.341,6.097 1.341,5.379" /></g><g
           transform="translate(186.5249,161.5172)"
           id="g88"><path
             id="path90"
             style="fill:#354f9f;fill-opacity:1;fill-rule:nonzero;stroke:none"
             d="M 0,0 C 0,1.655 0.804,2.483 2.413,2.483 H 5.631 V 1.379 H 2.413 C 1.52,1.379 1.073,0.92 1.073,0 v -3.034 c 0,-0.92 0.447,-1.38 1.34,-1.38 H 5.631 V -5.517 H 2.413 C 0.804,-5.517 0,-4.69 0,-3.034 Z" /></g><g
           transform="translate(187.8657,160.1379)"
           id="g92"><path
             id="path94"
             style="fill:#354f9f;fill-opacity:1;fill-rule:nonzero;stroke:none"
             d="M 0,0 V 1.379 C 0,2.115 0.358,2.483 1.073,2.483 H 4.291 V 1.379 H 1.341 C 1.162,1.379 1.073,1.287 1.073,1.103 H 3.486 V 0 Z" /></g><g
           transform="translate(187.8657,159.8621)"
           id="g96"><path
             id="path98"
             style="fill:#354f9f;fill-opacity:1;fill-rule:nonzero;stroke:none"
             d="M 0,0 H 3.486 V -1.103 H 1.073 c 0,-0.184 0.089,-0.276 0.268,-0.276 h 2.95 V -2.483 H 1.073 C 0.358,-2.483 0,-2.115 0,-1.379 Z" /></g><g
           transform="translate(195.9105,162.6207)"
           id="g100"><path
             id="path102"
             style="fill:#354f9f;fill-opacity:1;fill-rule:nonzero;stroke:none"
             d="M 0,0 H 2.95 V -1.103 H 1.073 V -6.621 H 0 Z m -0.268,0 v -6.621 h -1.073 v 5.518 H -3.218 V 0 Z M 2.95,0.276 H -3.218 V 1.379 H 2.95 Z" /></g><g
           transform="translate(204.2234,156)"
           id="g104"><path
             id="path106"
             style="fill:#354f9f;fill-opacity:1;fill-rule:nonzero;stroke:none"
             d="m 0,0 h -1.073 l -1.34,2.759 V 0 h -1.073 v 3.862 h 1.609 z M 0,5.379 C 0,5.036 -0.118,4.743 -0.353,4.501 -0.588,4.259 -0.828,4.138 -1.073,4.138 H -3.754 V 0 h -1.073 v 5.241 h 3.486 c 0.179,0 0.268,0.046 0.268,0.138 0,0.092 -0.089,0.138 -0.268,0.138 h -3.486 v 1.104 h 3.754 c 0.245,0 0.485,-0.123 0.72,-0.368 C -0.118,6.008 0,5.716 0,5.379 m 1.341,0 C 1.341,4.656 1.161,4.109 0.8,3.738 0.439,3.367 0.134,3.117 -0.116,2.989 L 1.341,0 H 0.268 l -1.877,3.862 h 0.536 c 0.316,0 0.619,0.149 0.908,0.446 0.289,0.297 0.433,0.654 0.433,1.071 0,0.411 -0.144,0.767 -0.433,1.067 -0.289,0.3 -0.592,0.451 -0.908,0.451 H -4.827 V 8 h 3.754 C -0.459,8 0.097,7.743 0.594,7.228 1.092,6.713 1.341,6.097 1.341,5.379" /></g><g
           transform="translate(209.5866,161.2414)"
           id="g108"><path
             id="path110"
             style="fill:#354f9f;fill-opacity:1;fill-rule:nonzero;stroke:none"
             d="M 0,0 C 0,0.184 -0.089,0.276 -0.268,0.276 H -0.804 C -0.983,0.276 -1.073,0.184 -1.073,0 v -2.483 c 0,-0.184 0.09,-0.276 0.269,-0.276 h 0.536 C -0.089,-2.759 0,-2.667 0,-2.483 Z M 1.073,0.276 V -2.759 C 1.073,-3.494 0.715,-3.862 0,-3.862 h -1.073 c -0.715,0 -1.072,0.368 -1.072,1.103 v 3.035 c 0,0.735 0.357,1.103 1.072,1.103 H 0 c 0.715,0 1.073,-0.368 1.073,-1.103 m 0.268,0 C 1.341,1.195 0.894,1.655 0,1.655 h -1.073 c -0.894,0 -1.34,-0.46 -1.34,-1.379 v -3.035 c 0,-0.919 0.446,-1.379 1.34,-1.379 H 0 c 0.894,0 1.341,0.46 1.341,1.379 z m 1.072,0 V -2.759 C 2.413,-4.414 1.609,-5.241 0,-5.241 h -1.073 c -1.609,0 -2.413,0.827 -2.413,2.482 v 3.035 c 0,1.655 0.804,2.483 2.413,2.483 H 0 c 1.609,0 2.413,-0.828 2.413,-2.483" /></g><g
           transform="translate(165.1706,157.855)"
           id="g112"><path
             id="path114"
             style="fill:#354f9f;fill-opacity:1;fill-rule:nonzero;stroke:none"
             d="M 0,0 C -0.008,0.024 -0.014,0.051 -0.021,0.076 H 0 Z M 1.511,0.628 C 1.332,0.628 1.243,0.72 1.243,0.904 V 6.145 H -1.171 V 0.628 c 0,-1.655 0.805,-2.483 2.414,-2.483 h 3.218 v 2.483 z" /></g><path
           id="path116"
           style="fill:#354f9f;fill-opacity:1;fill-rule:nonzero;stroke:none"
           d="m 170.167,156 h 2.413 v 8 h -2.413 z" /><g
           transform="translate(176.6031,161.2414)"
           id="g118"><path
             id="path120"
             style="fill:#354f9f;fill-opacity:1;fill-rule:nonzero;stroke:none"
             d="M 0,0 H -1.073 V 0.276 H 0 C 0.179,0.276 0.268,0.23 0.268,0.138 0.268,0.046 0.179,0 0,0 m 0,-2.759 h -1.073 v 0.276 H 0 c 0.179,0 0.268,-0.046 0.268,-0.138 C 0.268,-2.713 0.179,-2.759 0,-2.759 M 2.682,0.138 C 2.682,0.855 2.433,1.471 1.935,1.986 1.438,2.501 0.882,2.759 0.268,2.759 h -3.754 v -8 h 3.754 c 0.614,0 1.17,0.257 1.667,0.772 0.498,0.515 0.747,1.131 0.747,1.848 0,0.521 -0.123,0.978 -0.367,1.37 0.244,0.393 0.367,0.856 0.367,1.389" /></g></g></g></g></svg>
